build/finance/SilverSolid.svg

<svg xmlns="http://www.w3.org/2000/svg" fill="none" viewBox="0 0 24 24" focusable="false"><path d="M0 0H24V24H0z"/><path fill="#74767B" fill-rule="evenodd" d="M2.00024 8.00512C2.00018 6.34822 3.34334 5.005 5.00024 5.005L18.9997 5.005C20.6565 5.005 21.9996 6.34808 21.9997 8.00489L22 15.9949C22.0001 17.6518 20.6569 18.995 19 18.995L5.00056 18.995C3.34375 18.995 2.00062 17.6519 2.00055 15.9951L2.00024 8.00512ZM8.49126 7.98969C8.75217 7.98945 8.98793 8.14524 9.09002 8.38535L11.9437 15.0969C12.0842 15.4273 11.9303 15.8089 11.5999 15.9494C11.2695 16.0899 10.8878 15.9359 10.7474 15.6056L10.0659 14.0029L6.92858 14.0029L6.25099 15.6045C6.11112 15.9351 5.72971 16.0897 5.3991 15.9499C5.06849 15.81 4.91386 15.4286 5.05374 15.098L7.89322 8.38642C7.99488 8.14614 8.23036 7.98992 8.49126 7.98969ZM17.9213 11.0917C17.9213 12.1459 17.1842 13.0275 16.1981 13.2511C16.1189 13.2854 16.0317 13.3044 15.9399 13.3044L15.7894 13.3044C15.7618 13.3054 15.7341 13.3059 15.7063 13.3059C15.6785 13.3059 15.6508 13.3054 15.6232 13.3044L14.9919 13.3044C14.6037 13.3044 14.2889 13.6191 14.2889 14.0074C14.2889 14.3957 14.6037 14.7104 14.9919 14.7104L18.357 14.7104C18.7159 14.7104 19.007 15.0014 19.007 15.3604C19.007 15.7194 18.7159 16.0104 18.357 16.0104L14.9919 16.0104C13.8857 16.0104 12.9889 15.1136 12.9889 14.0074C12.9889 13.3133 13.342 12.7017 13.8783 12.3423C13.6342 11.9865 13.4913 11.5558 13.4913 11.0917C13.4913 9.87964 14.4658 8.89575 15.6728 8.87783C15.6979 8.87489 15.7234 8.87338 15.7493 8.87338L18.379 8.87338C18.738 8.87338 19.029 9.16439 19.029 9.52338C19.029 9.88236 18.738 10.1734 18.379 10.1734L17.7223 10.1734C17.8501 10.4531 17.9213 10.7641 17.9213 11.0917ZM15.7063 10.1776C15.201 10.1776 14.7913 10.5873 14.7913 11.0917C14.7913 11.5783 15.1724 11.9767 15.6529 12.0044L15.7597 12.0044C16.2402 11.9767 16.6213 11.5783 16.6213 11.0917C16.6213 10.5873 16.2116 10.1776 15.7063 10.1776ZM9.51319 12.7029L8.49334 10.3044L7.47857 12.7029L9.51319 12.7029Z"/></svg>

<svg xmlns="http://www.w3.org/2000/svg" fill="none" viewBox="0 0 24 24" focusable="false"><path fill="#74767B" fill-rule="evenodd" d="M2 8c0-1.66 1.34-3 3-3h13.99c1.66 0 3 1.34 3 3l.01 7.99c0 1.66-1.35 3-3 3H5c-1.66 0-3-1.34-3-3zm6.49-.02c.26 0 .49.16.6.4l2.85 6.71c.14.33-.01.71-.35.85a.646.646 0 0 1-.85-.34l-.68-1.6H6.92l-.67 1.6c-.14.33-.53.48-.86.34a.643.643 0 0 1-.34-.85l2.84-6.71c.1-.24.34-.4.6-.4m9.43 3.11c0 1.05-.74 1.93-1.73 2.16-.08.03-.16.05-.26.05h-.94a.704.704 0 1 0 0 1.41h3.36c.36 0 .65.29.65.65 0 .35-.29.65-.65.65h-3.36c-1.11 0-2.01-.9-2.01-2.01 0-.69.36-1.3.89-1.66-.24-.36-.38-.79-.38-1.25 0-1.22.97-2.2 2.18-2.22h2.7c.36 0 .65.29.65.65s-.29.65-.65.65h-.65c.13.28.2.59.2.92m-2.22-.92a.915.915 0 0 0-.05 1.83h.1c.49-.03.87-.43.87-.91 0-.51-.41-.92-.92-.92M9.51 12.7l-1.02-2.4-1.02 2.4z"/></svg>
